X:1
T:Gartenlieder, Op.3
T:Schöne Fremde
T:Gartenlieder, Op.3
T:Fanny (Mendelssohn) Hensel
T:Joseph von Eichendorff
T:2. Schöne Fremde
T:Creative Commons copyright waiver (CC0 1.0 Universal)
T:Creative Commons copyright waiver (CC0 1.0 Universal)
T:Creative Commons copyright waiver (CC0 1.0 Universal)
T:Creative Commons copyright waiver (CC0 1.0 Universal)
T:Creative Commons copyright waiver (CC0 1.0 Universal)
T:Creative Commons copyright waiver (CC0 1.0 Universal)
T:Creative Commons copyright waiver (CC0 1.0 Universal)
C:Fanny (Mendelssohn) Hensel
Z:Joseph von Eichendorff
Z:Creative Commons copyright waiver (CC0 1.0 Universal)
%%score [ 1 2 3 4 ]
L:1/8
Q:1/4=114
M:6/8
K:G
V:1 treble nm="Soprano"
V:2 treble nm="Alto"
V:3 treble-8 nm="Tenor"
V:4 bass nm="Bass"
V:1
"^Moderato" B | %1
w: Es|
"^NOTE TO TRANSCRIBER: we suggest that you always fill in the lyrics below the Soprano, Alto & Tenor  staves,\nand add lyrics for the Bass staff only when they are shown in the IMSLP edition. \nThis consistency will make it easier for a choir to perform the work.  See example measures on page 1.\n\n" G A ^A B c B | %2
w: rau- schen die Wi- pfel und|
 e3 B2 B | A B c cd c | f3 z B B | Bg f e B G | F3 E2 G |!>(! BA!>)! G!>(! B A!>)! G | %8
w: schau- ern als|hiel- ten zu die- * ser|Stund, um die|halb- * ver- fal- le- nen|Mau- ern, die|al- * ten Göt- ter die|
!>(! F3-!>)! F2 z | z3 z2 B | (B2 e) c2 ^A | z6 | z6 | z6 | z6 | z6 | z6 | z6 | z6 | z6 | z6 | z6 | %22
w: Rund *|es|rau- * schen die||||||||||||
 z6 | z6 | z6 | z6 | z6 | z6 | z6 | z6 | z6 | z6 | z6 | z6 | z6 | z6 | z6 | z6 | z6 | z6 | z6 | %41
w: |||||||||||||||||||
 z6 | z6 |[K:E][M:4/4][Q:1/4=155]"^Allegro molto vivace" z8 | z8 | z8 | z8 | z8 | z8 | z8 | z8 | %51
w: ||||||||||
 z8 | z8 | z8 | z8 | z8 | z8 | z8 | z8 | z8 | z8 | z8 | z8 | z8 | z8 | z8 | z8 | z8 | z8 | z8 | %70
w: |||||||||||||||||||
 z8 | z8 | z8 | z8 | z8 | z8 | z8 | z8 | z8 | z8 | z8 | z8 | z8 |] %83
w: |||||||||||||
V:2
 B | G A ^A B c B | EFG- G F E | A B c cd c | FGA- A G F | E2 E E E E | ^D3 E2 E | GF E G F E | %8
w: Es|rau- schen die Wi- pfel und|schau- * * * ern als|hiel- ten zu die- * ser|Stund, * * * um die|halb- ver- fal- le- nen|Mau- ern, die|al- * ten Göt- ter die|
 E3- E2 F | (F2 A) G2 F | E2 E z2 E | z6 | z6 | z6 | z6 | z6 | z6 | z6 | z6 | z6 | z6 | z6 | z6 | %23
w: Rund * es|rau- * schen die|Wip- fel, als|||||||||||||
 z6 | z6 | z6 | z6 | z6 | z6 | z6 | z6 | z6 | z6 | z6 | z6 | z6 | z6 | z6 | z6 | z6 | z6 | z6 | %42
w: |||||||||||||||||||
 z6 |[K:E][M:4/4] z8 | z8 | z8 | z8 | z8 | z8 | z8 | z8 | z8 | z8 | z8 | z8 | z8 | z8 | z8 | z8 | %59
w: |||||||||||||||||
 z8 | z8 | z8 | z8 | z8 | z8 | z8 | z8 | z8 | z8 | z8 | z8 | z8 | z8 | z8 | z8 | z8 | z8 | z8 | %78
w: |||||||||||||||||||
 z8 | z8 | z8 | z8 | z8 |] %83
w: |||||
V:3
 B | B3 B2 B | GAB- B A G | c3 c2 c | ABc- c B A | G2 G B B B | c3 B2 B | %7
w: Es|rau- schen die|Wi- * * * pfel als|hiel- ten zur|Stund * * * um die|halb- ver- fal- le- nen|Mau- ern, die|
!>(! GA!>)! B!>(! G A!>)! B |!>(! (c3!>)! ^c2) e | ^d3 d2 d | B2 B z2 G | z6 | z6 | z6 | z6 | z6 | %16
w: al- * ten Göt- ter die|Rund * es|rau- schen die|Wip- fel, als||||||
 z6 | z6 | z6 | z6 | z6 | z6 | z6 | z6 | z6 | z6 | z6 | z6 | z6 | z6 | z6 | z6 | z6 | z6 | z6 | %35
w: |||||||||||||||||||
 z6 | z6 | z6 | z6 | z6 | z6 | z6 | z6 |[K:E][M:4/4] z8 | z8 | z8 | z8 | z8 | z8 | z8 | z8 | z8 | %52
w: |||||||||||||||||
 z8 | z8 | z8 | z8 | z8 | z8 | z8 | z8 | z8 | z8 | z8 | z8 | z8 | z8 | z8 | z8 | z8 | z8 | z8 | %71
w: |||||||||||||||||||
 z8 | z8 | z8 | z8 | z8 | z8 | z8 | z8 | z8 | z8 | z8 | z8 |] %83
w: ||||||||||||
V:4
 E, | E,3 E,2 E, | E,3 E,2 E, | E,3 E,2 E, | ^D,3 D,2 D, | E,3 G,2 G, | A,3 G,2 G, | %7
w: Es|rau- schen die|Wi- pfel es|rau- schen die|Wi- pfel als|hiel- ten die|al- ten, die|
!>(! E,F,!>)!G,!>(! E,F,!>)!G, |!>(! (A,3!>)! ^A,2) F, | (B,2 C) B,2 A, | G,2 G, z2 E, | z6 | z6 | %13
w: ||||||
 z6 | z6 | z6 | z6 | z6 | z6 | z6 | z6 | z6 | z6 | z6 | z6 | z6 | z6 | z6 | z6 | z6 | z6 | z6 | %32
w: |||||||||||||||||||
 z6 | z6 | z6 | z6 | z6 | z6 | z6 | z6 | z6 | z6 | z6 |[K:E][M:4/4] z8 | z8 | z8 | z8 | z8 | z8 | %49
w: |||||||||||||||||
 z8 | z8 | z8 | z8 | z8 | z8 | z8 | z8 | z8 | z8 | z8 | z8 | z8 | z8 | z8 | z8 | z8 | z8 | z8 | %68
w: |||||||||||||||||||
 z8 | z8 | z8 | z8 | z8 | z8 | z8 | z8 | z8 | z8 | z8 | z8 | z8 | z8 | z8 |] %83
w: |||||||||||||||

